X:2369
T:Butternut Jig
M:6/8
L:1/8
C:Bruce Osborne  --  Apr.26 1991
R:jig
K:Bb
FE|DB,D FDF|BAB FDF|EGB cBG|E3 E3/2G3/2|
FDF AFA|cAc ecA|BAB FGF|D4 FE|
DB,D FDF|BAB FDF|EGB cBG|E3 E3/2G3/2|
FDF AFA|cAc ecA|BAB dcA|B4:|
|:DE|F2 B dcB|FGF DEF|EGB cBG|E3 E3/2G3/2|
FDF AFA|cAc ecA|f=ef agf|d4 DE|
F2 B dcB|FGF DEF|EGB cBG|E3 E3/2G3/2|
FDF AFA|cAc ecA|f=ef ABc|B4:|


